tenants/donaldduck/icons/reload.svg

<svg fill="none" height="24" viewBox="0 0 24 24" width="24" xmlns="http://www.w3.org/2000/svg"><path clip-rule="evenodd" d="m4.46663 12c0-3.78003 2.94667-7.53337 7.53337-7.53337 3.704 0 5.536 2.74134 6.316 4.2h-2.316c-.1768 0-.3464.07024-.4714.19527-.1251.12502-.1953.29459-.1953.4714s.0702.34638.1953.4714c.125.12503.2946.19527.4714.19527h4c.1768 0 .3463-.07024.4714-.19527.125-.12502.1952-.29459.1952-.4714v-4c0-.17681-.0702-.34638-.1952-.4714-.1251-.12503-.2946-.19527-.4714-.19527s-.3464.07024-.4714.19527c-.1251.12502-.1953.29459-.1953.4714v2.41733c-.9387-1.656-3.112-4.61733-7.3333-4.61733-5.41737 0-8.8667 4.44667-8.8667 8.8667 0 4.42 3.44933 8.8666 8.8667 8.8666 2.592 0 4.7493-1.0266 6.2853-2.5893.8143-.8319 1.4607-1.8129 1.904-2.8893.0333-.081.0503-.1678.05-.2553-.0002-.0876-.0177-.1742-.0515-.255-.0337-.0808-.083-.1541-.1451-.2158-.0621-.0618-.1358-.1107-.2167-.1439-.081-.0333-.1678-.0503-.2553-.05-.0876.0002-.1742.0177-.255.0515-.0808.0337-.1541.083-.2158.1451-.0618.0621-.1107.1357-.1439.2167-.3777.9168-.9281 1.7524-1.6214 2.4613-1.2946 1.32-3.1146 2.1907-5.3346 2.1907-4.5867 0-7.53337-3.7533-7.53337-7.5333z" fill="#000" fill-rule="evenodd" stroke="#000" stroke-width=".5"/></svg>

<svg width="24" height="24" viewBox="0 0 24 24" fill="none" xmlns="http://www.w3.org/2000/svg">
<path fill-rule="evenodd" clip-rule="evenodd" d="M4.46663 12C4.46663 8.21997 7.4133 4.46663 12 4.46663C15.704 4.46663 17.536 7.20797 18.316 8.66663H16C15.8232 8.66663 15.6536 8.73687 15.5286 8.8619C15.4035 8.98692 15.3333 9.15649 15.3333 9.3333C15.3333 9.51011 15.4035 9.67968 15.5286 9.8047C15.6536 9.92973 15.8232 9.99997 16 9.99997H20C20.1768 9.99997 20.3463 9.92973 20.4714 9.8047C20.5964 9.67968 20.6666 9.51011 20.6666 9.3333V5.3333C20.6666 5.15649 20.5964 4.98692 20.4714 4.8619C20.3463 4.73687 20.1768 4.66663 20 4.66663C19.8232 4.66663 19.6536 4.73687 19.5286 4.8619C19.4035 4.98692 19.3333 5.15649 19.3333 5.3333V7.75063C18.3946 6.09463 16.2213 3.1333 12 3.1333C6.58263 3.1333 3.1333 7.57997 3.1333 12C3.1333 16.42 6.58263 20.8666 12 20.8666C14.592 20.8666 16.7493 19.84 18.2853 18.2773C19.0996 17.4454 19.746 16.4644 20.1893 15.388C20.2226 15.307 20.2396 15.2202 20.2393 15.1327C20.2391 15.0451 20.2216 14.9585 20.1878 14.8777C20.1541 14.7969 20.1048 14.7236 20.0427 14.6619C19.9806 14.6001 19.9069 14.5512 19.826 14.518C19.745 14.4847 19.6582 14.4677 19.5707 14.468C19.4831 14.4682 19.3965 14.4857 19.3157 14.5195C19.2349 14.5532 19.1616 14.6025 19.0999 14.6646C19.0381 14.7267 18.9892 14.8003 18.956 14.8813C18.5783 15.7981 18.0279 16.6337 17.3346 17.3426C16.04 18.6626 14.22 19.5333 12 19.5333C7.4133 19.5333 4.46663 15.78 4.46663 12Z" fill="black" stroke="black" stroke-width="0.5"/>
</svg>
